X: 4
T: the Spotted Dog
C: John McEvoy (2001 or earlier)
%D:2001
M: 6/8
L: 1/8
R: jig
K: A
|:\
"A"EAA ABc | "D"BAF "A"AFE | "Bm"FBB Bce | "D"faf "E"ecA |
"A"EAA ABc | "D"BAF Ace | "D"f2a"A"e2a | "E"ABc "A"B2A :|
|:\
"A"cee ece | "D"fec "A"ecA | "A"eaf "F#m"ecA | "Bm"EFA "E"B2A |
"A"cee ece | "D"fec "A"e2 a | "D"f2a "A"e2a | "E"ABc "A"B2A :|
%%text Ending: Tack on an A-chord after last measure.
